**kern	**kern
*staff2	*staff1
*clefF4	*clefG2
*k[]	*k[]
*M3/4	*M3/4
*C:	*C:
=	=
4B- 4g	16r
.	(16ccLL
.	16ccc)
.	16cccJJ
4B- 4g	16r
.	(16ccLL
.	16ccc)
.	16ccc'JJ
4B- 4g	16r
.	(16ccLL
.	16ccc)
.	16ccc'JJ
=146	=146
4.B- 4.g	16ccLL
.	16ccc
.	16cc
.	16cccJJ
.	16ccLL
.	16ccc
8AL 8f	16cc
.	16cccJJ
8G 8e	16ccLL
.	16ccc
8G#J 8e	16cc
.	16cccJJ
=147	=147
4A 4c 4f	16r
.	(16ccLL
.	16ccc)
.	16cccJJ
4A 4c 4f	16r
.	(16ccLL
.	16ccc)
.	16ccc'JJ
4A 4c 4f	16r
.	(16ccLL
.	16ccc)
.	16ccc'JJ
=148	=148
4.A 4.c 4.f	16ccLL
.	16ccc
.	16cc
.	16cccJJ
.	16ccLL
.	16ccc
*clefF4	*
8GL 8c 8e	16cc
.	16cccJJ
8F 8c 8d	16ccLL
.	16ccc
8F#J 8c 8d#	16cc
.	16cccJJ
=149	=149
4G 4c 4e	24r
.	24cccLL
.	24bbJ
.	24cccL
.	24bb
.	24cccJJ
8AL 8c 8f	24r
.	(24bbLL
.	24cccJJ)
8G 8c 8e	24r
.	(24bbLL
.	24cccJJ)
8F 8B 8d	24r
.	(24bbLL
.	24cccJJ)
8EJ 8c	24r
.	(24bbLL
.	24cccJJ)
=150	=150
4.c 4.e	24r
.	24bbLL
.	24cccJ
.	24eeeL
.	24ddd
.	24cccJJ
.	24bbLL
.	24aa
.	24ggJ
8d 8f	24ffL
.	24ee
.	24ddJJ
8e 8g	24ccLL
.	24b
.	24ccJ
*^	*
24CLL	8r	24ggL
24D	.	24ee
24EJJ	.	24ccJJ
*v	*v	*
=151	=151
24FLL	24aLL
24A	24aa
24dJ	24gg#J
24FL	24aaL
24A	24ff
24dJJ	24ddJJ
24GLL	24r
24c	24ggLL
24eJ	24ff#J
24GL	24ggL
24c	24ee
24eJJ	24ccJJ
24GGLL	4dd
24BB	.
24DJ	.
24GL	.
24A	.
24BJJ	.
=152	=152
*-	*-
